Assets/06_Vintage_ LUTs_B&W.cube
LUT_3D_SIZE 16
0.042909 0.075568 0.039022
0.041046 0.073824 0.037277
0.035177 0.068284 0.031795
0.061915 0.093006 0.056943
0.091754 0.119488 0.085423
0.125317 0.148404 0.117789
0.167553 0.185244 0.158910
0.216970 0.229350 0.207376
0.271445 0.279021 0.261206
0.325910 0.329602 0.315338
0.376228 0.377044 0.365555
0.421697 0.420363 0.411127
0.459161 0.456379 0.448784
0.488295 0.484586 0.478120
0.512065 0.507691 0.502122
0.533197 0.528377 0.523454
0.033993 0.067151 0.030691
0.040504 0.073321 0.036770
0.045611 0.078084 0.041552
0.069502 0.099837 0.064151
0.095304 0.122582 0.088838
0.129872 0.152336 0.122199
0.171103 0.188362 0.162364
0.220323 0.232376 0.210685
0.274545 0.281887 0.264268
0.328716 0.332216 0.318113
0.378266 0.378990 0.367599
0.424432 0.422952 0.413903
0.460403 0.457578 0.450034
0.490373 0.486584 0.480231
0.513287 0.508911 0.503341
0.534319 0.529407 0.524556
0.068552 0.098993 0.063252
0.070217 0.100481 0.064836
0.076800 0.106335 0.071106
0.087887 0.116104 0.081711
0.111161 0.136277 0.104105
0.145217 0.165639 0.137115
0.185622 0.201247 0.176580
0.234132 0.244887 0.224285
0.287334 0.293697 0.276961
0.340251 0.343081 0.329616
0.389798 0.389911 0.379151
0.431844 0.430073 0.421316
0.467645 0.464538 0.457315
0.495752 0.491828 0.485625
0.518531 0.513988 0.508596
0.538658 0.533687 0.528980
0.104633 0.130653 0.097809
0.105543 0.131445 0.098689
0.109994 0.135270 0.102974
0.117389 0.141608 0.110116
0.139783 0.160921 0.131841
0.170903 0.188198 0.162177
0.212322 0.225147 0.202806
0.260050 0.268568 0.249920
0.311677 0.316302 0.301168
0.362320 0.363862 0.351690
0.409690 0.408838 0.399082
0.450628 0.448134 0.440199
0.481787 0.478246 0.471559
0.508314 0.504033 0.498308
0.528675 0.523922 0.518880
0.547267 0.542120 0.537670
0.153943 0.173274 0.145620
0.154683 0.173916 0.146336
0.158173 0.176984 0.149744
0.164201 0.182284 0.155627
0.174965 0.191779 0.166147
0.207717 0.221031 0.198298
0.249662 0.259046 0.239637
0.296925 0.302599 0.286484
0.346747 0.349154 0.336107
0.394447 0.394284 0.383771
0.436245 0.434292 0.425753
0.474379 0.471092 0.464098
0.503917 0.499765 0.493894
0.526329 0.521596 0.516518
0.543878 0.538776 0.534242
0.560349 0.554988 0.550910
0.220963 0.232960 0.211319
0.221641 0.233579 0.211972
0.224076 0.235776 0.214376
0.229915 0.241061 0.220133
0.238820 0.249162 0.228927
0.251916 0.261106 0.241862
0.294985 0.300775 0.284562
0.342150 0.344813 0.331486
0.390156 0.390242 0.379504
0.434421 0.432543 0.423911
0.473121 0.469868 0.462828
0.505116 0.500916 0.495104
0.529595 0.524854 0.519857
0.549397 0.544184 0.539806
0.563637 0.558219 0.554202
0.577506 0.571868 0.568265
0.303756 0.308966 0.293289
0.304352 0.309476 0.293868
0.306811 0.311742 0.296298
0.312429 0.317006 0.301920
0.320328 0.324371 0.309744
0.331737 0.335051 0.321118
0.345463 0.347919 0.334811
0.392700 0.392663 0.382071
0.438727 0.436684 0.428236
0.479242 0.475818 0.469007
0.512299 0.507949 0.502343
0.539783 0.534796 0.530154
0.559947 0.554622 0.550528
0.576047 0.570436 0.566811
0.587112 0.581326 0.578002
0.598282 0.592377 0.589326
0.395000 0.394795 0.384318
0.395482 0.395278 0.384846
0.396979 0.396747 0.386343
0.402411 0.401906 0.391807
0.409219 0.408404 0.398618
0.417965 0.416813 0.407439
0.430991 0.429259 0.420458
0.445651 0.443355 0.435183
0.489244 0.485498 0.479100
0.525572 0.520889 0.515764
0.554551 0.549314 0.545030
0.578013 0.572374 0.568800
0.593268 0.587432 0.584251
0.604684 0.598716 0.595851
0.613524 0.607481 0.604819
0.622066 0.615903 0.613459
0.484494 0.480907 0.474306
0.484912 0.481303 0.474729
0.487443 0.483761 0.477255
0.489817 0.486052 0.479665
0.496728 0.492773 0.486613
0.502575 0.498465 0.492517
0.513323 0.508945 0.503376
0.525006 0.520337 0.515186
0.538431 0.533493 0.528749
0.570652 0.565079 0.561332
0.595639 0.589767 0.586663
0.615076 0.609013 0.606388
0.627934 0.621777 0.619414
0.636850 0.630671 0.628496
0.642367 0.636118 0.634095
0.648398 0.642123 0.640191
0.560417 0.554997 0.550922
0.560681 0.555317 0.551310
0.562321 0.556924 0.552936
0.564604 0.559166 0.555188
0.568701 0.563173 0.559355
0.574880 0.569279 0.565592
0.582238 0.576540 0.573073
0.591305 0.585475 0.582268
0.601892 0.595960 0.592993
0.613918 0.607845 0.605193
0.636569 0.630362 0.628180
0.652360 0.646101 0.644287
0.664685 0.658354 0.656751
0.670321 0.664011 0.662547
0.673314 0.666989 0.665591
0.677045 0.670735 0.669397
0.621496 0.615368 0.612884
0.621769 0.615638 0.613139
0.623417 0.617323 0.614862
0.624646 0.618533 0.616100
0.628522 0.622354 0.620012
0.632220 0.626020 0.623749
0.639121 0.632883 0.630767
0.646641 0.640358 0.638420
0.655587 0.649275 0.647448
0.665962 0.659674 0.658054
0.678577 0.672219 0.670873
0.692752 0.686459 0.685354
0.703001 0.696692 0.695712
0.706322 0.700108 0.699186
0.706826 0.700481 0.699656
0.708244 0.701988 0.701190
0.672525 0.666149 0.664698
0.672684 0.666363 0.664901
0.672525 0.666149 0.664698
0.675586 0.669200 0.667849
0.679156 0.672853 0.671558
0.682973 0.676611 0.675413
0.687757 0.681476 0.680296
0.694421 0.688120 0.687068
0.702498 0.696255 0.695266
0.711900 0.705676 0.704805
0.722513 0.716349 0.715655
0.735722 0.729575 0.729136
0.743337 0.737317 0.736949
0.744463 0.738472 0.738087
0.743337 0.737317 0.736949
0.742622 0.736489 0.736111
0.716071 0.709869 0.709116
0.716256 0.710058 0.709309
0.717124 0.710902 0.710074
0.719111 0.712883 0.712219
0.721297 0.715072 0.714461
0.724638 0.718592 0.717872
0.729821 0.723760 0.723235
0.736187 0.730006 0.729618
0.743531 0.737513 0.737105
0.752321 0.746442 0.746088
0.762570 0.756695 0.756565
0.774186 0.768512 0.768396
0.786841 0.781266 0.781279
0.786512 0.781028 0.781037
0.783068 0.777432 0.777408
0.779958 0.774269 0.774213
0.753701 0.747717 0.747508
0.753907 0.747996 0.747627
0.754617 0.748685 0.748330
0.755819 0.749931 0.749609
0.757951 0.751978 0.751793
0.761539 0.755694 0.755515
0.766460 0.760641 0.760448
0.771987 0.766246 0.766117
0.778818 0.773226 0.773160
0.786970 0.781400 0.781413
0.796821 0.791516 0.791529
0.805880 0.800685 0.800778
0.818111 0.813044 0.813286
0.831422 0.826681 0.826929
0.825627 0.820765 0.821054
0.820067 0.815079 0.815323
0.786563 0.781097 0.781107
0.786708 0.781229 0.781240
0.787579 0.782020 0.782039
0.789588 0.784059 0.784097
0.790530 0.785113 0.785065
0.793734 0.788284 0.788361
0.798146 0.792768 0.792863
0.803204 0.797959 0.798118
0.809394 0.804178 0.804361
0.816648 0.811589 0.811822
0.826392 0.821512 0.821805
0.834576 0.829881 0.830146
0.844804 0.840326 0.840666
0.856710 0.852446 0.852875
0.870222 0.866261 0.866744
0.862365 0.858193 0.858639
0.818003 0.812965 0.813207
0.818155 0.813090 0.813332
0.818953 0.813940 0.814188
0.819989 0.814999 0.815244
0.822666 0.817757 0.818029
0.824546 0.819621 0.819826
0.828356 0.823515 0.823820
0.832986 0.828248 0.828539
0.838516 0.833879 0.834236
0.845019 0.840615 0.840888
0.853646 0.849342 0.849646
0.861989 0.857923 0.858251
0.870971 0.867034 0.867498
0.881864 0.878203 0.878585
0.893550 0.890159 0.890620
0.906249 0.903229 0.903697
0.042316 0.075014 0.038467
0.040327 0.073147 0.036604
0.034597 0.067730 0.031255
0.063190 0.094166 0.058156
0.092137 0.119823 0.085793
0.126728 0.149623 0.119154
0.167950 0.185566 0.159279
0.217305 0.229667 0.207702
0.271755 0.279318 0.261495
0.326213 0.329899 0.315638
0.376514 0.377294 0.365853
0.421987 0.420629 0.411404
0.459303 0.456516 0.448929
0.488464 0.484755 0.478287
0.512212 0.507829 0.502253
0.533366 0.528481 0.523626
0.032080 0.065321 0.028913
0.044088 0.076669 0.040126
0.056522 0.088122 0.051839
0.073283 0.103210 0.067753
0.097474 0.124456 0.090906
0.130397 0.152790 0.122725
0.171129 0.188398 0.162396
0.219799 0.231922 0.210180
0.273708 0.281134 0.263463
0.327837 0.331405 0.317240
0.377430 0.378177 0.366818
0.422568 0.421181 0.412018
0.461088 0.458226 0.450722
0.490134 0.486358 0.479963
0.512987 0.508618 0.503046
0.534058 0.529189 0.524305
0.069132 0.099506 0.063800
0.072367 0.102387 0.066876
0.077381 0.106850 0.071660
0.091132 0.118942 0.084821
0.113326 0.138128 0.106184
0.145808 0.166151 0.137693
0.185626 0.201251 0.176596
0.233662 0.244472 0.223825
0.286636 0.293024 0.276256
0.339442 0.342266 0.328792
0.388070 0.388293 0.377431
0.432018 0.430211 0.421460
0.467337 0.464267 0.457019
0.495539 0.491585 0.485415
0.518212 0.513701 0.508337
0.538406 0.533468 0.528766
0.104949 0.130933 0.098112
0.106696 0.132434 0.099786
0.110316 0.135545 0.103281
0.117470 0.141672 0.110190
0.139820 0.160940 0.131859
0.172634 0.189717 0.163863
0.212337 0.225180 0.202835
0.259693 0.268232 0.249556
0.311104 0.315772 0.300575
0.361627 0.363208 0.350966
0.407142 0.406445 0.396504
0.448925 0.446504 0.438480
0.482470 0.478926 0.472248
0.508106 0.503874 0.498099
0.528412 0.523607 0.518553
0.547063 0.541920 0.537462
0.154192 0.173489 0.145862
0.155338 0.174498 0.146978
0.157369 0.176264 0.148964
0.164865 0.182856 0.156259
0.174014 0.190935 0.165212
0.207468 0.220801 0.198037
0.249757 0.259131 0.239732
0.296667 0.302330 0.286232
0.346253 0.348730 0.335639
0.393841 0.393767 0.383202
0.435775 0.433863 0.425279
0.473814 0.470547 0.463538
0.502650 0.498551 0.492633
0.525155 0.520482 0.515339
0.543586 0.538540 0.533947
0.560144 0.554761 0.550702
0.221193 0.233170 0.211543
0.221958 0.233869 0.212295
0.225325 0.236912 0.215617
0.230223 0.241347 0.220443
0.238926 0.249258 0.229024
0.251809 0.261009 0.241756
0.295071 0.300885 0.284653
0.342041 0.344731 0.331395
0.389838 0.389948 0.379182
0.433981 0.432121 0.423466
0.471829 0.468610 0.461543
0.505664 0.501446 0.495646
0.529383 0.524653 0.519593
0.548264 0.543144 0.538649
0.563397 0.557973 0.553999
0.577371 0.571723 0.568133
0.303950 0.309140 0.293476
0.304453 0.309606 0.293984
0.307004 0.311943 0.296495
0.312541 0.317120 0.302021
0.319497 0.323603 0.308938
0.331755 0.335068 0.321135
0.345643 0.348111 0.334982
0.392729 0.392657 0.382100
0.438548 0.436512 0.428055
0.478971 0.475528 0.468733
0.512116 0.507772 0.502162
0.539532 0.534546 0.529848
0.559840 0.554431 0.550357
0.575900 0.570286 0.566646
0.586936 0.581164 0.577827
0.598120 0.592219 0.589197
0.395126 0.394948 0.384467
0.395443 0.395285 0.384824
0.397095 0.396855 0.386456
0.402418 0.401912 0.391813
0.409316 0.408495 0.398718
0.418093 0.416872 0.407507
0.431085 0.429353 0.420555
0.445721 0.443424 0.435289
0.489216 0.485477 0.479046
0.525476 0.520784 0.515629
0.554516 0.549255 0.545019
0.577920 0.572264 0.568704
0.592160 0.586320 0.583132
0.604561 0.598595 0.595717
0.613407 0.607344 0.604654
0.621911 0.615800 0.613332
0.484652 0.481043 0.474457
0.484912 0.481272 0.474697
0.487584 0.483903 0.477405
0.489785 0.486021 0.479633
0.496749 0.492782 0.486659
0.502654 0.498514 0.492595
0.513371 0.508992 0.503424
0.525087 0.520415 0.515232
0.538422 0.533484 0.528741
0.570568 0.565016 0.561235
0.595632 0.589761 0.586657
0.614057 0.607982 0.605358
0.627798 0.621668 0.619300
0.636727 0.630548 0.628369
0.642229 0.635981 0.633955
0.648267 0.642003 0.640068
0.560477 0.555114 0.551042
0.560634 0.555272 0.551263
0.562432 0.556983 0.553002
0.565518 0.560070 0.556173
0.568677 0.563166 0.559344
0.574889 0.569288 0.565601
0.582231 0.576533 0.573066
0.591314 0.585484 0.582278
0.601894 0.595963 0.592996
0.613956 0.607882 0.605231
0.636571 0.630364 0.628183
0.652400 0.646140 0.644292
0.663662 0.657374 0.655749
0.669256 0.662946 0.661467
0.673300 0.666924 0.665451
0.676977 0.670594 0.669217
0.621563 0.615461 0.612958
0.621714 0.615584 0.613084
0.623460 0.617368 0.614909
0.624617 0.618451 0.616045
0.627520 0.621366 0.618992
0.632211 0.626011 0.623740
0.639068 0.632860 0.630714
0.646632 0.640349 0.638411
0.655596 0.649284 0.647456
0.665993 0.659625 0.658085
0.678531 0.672228 0.670882
0.692784 0.686490 0.685347
0.701922 0.695606 0.694672
0.705352 0.699038 0.698098
0.706635 0.700426 0.699511
0.708151 0.701905 0.701015
0.672580 0.666292 0.664842
0.672670 0.666349 0.664886
0.672580 0.666292 0.664842
0.675572 0.669186 0.667835
0.678212 0.671871 0.670518
0.682941 0.676614 0.675380
0.687746 0.681465 0.680285
0.694388 0.688087 0.687033
0.702489 0.696245 0.695256
0.711925 0.705601 0.704774
0.722499 0.716335 0.715641
0.735748 0.729601 0.729162
0.743356 0.737331 0.736873
0.744419 0.738423 0.737946
0.743356 0.737331 0.736873
0.742480 0.736439 0.736058
0.716060 0.709862 0.709181
0.716132 0.709934 0.709254
0.717188 0.710968 0.710140
0.718984 0.712831 0.712093
0.721301 0.715072 0.714386
0.724711 0.718539 0.717894
0.729830 0.723686 0.723157
0.736133 0.730036 0.729563
0.743502 0.737484 0.737169
0.752323 0.746445 0.746092
0.762550 0.756784 0.756545
0.774189 0.768514 0.768399
0.786809 0.781234 0.781246
0.786471 0.780987 0.780996
0.783035 0.777400 0.777375
0.779918 0.774228 0.774172
0.753736 0.747791 0.747579
0.753842 0.747948 0.747643
0.754729 0.748855 0.748503
0.755754 0.749865 0.749543
0.757922 0.751949 0.751764
0.761518 0.755672 0.755494
0.766432 0.760612 0.760419
0.771966 0.766235 0.766096
0.778806 0.773214 0.773147
0.786969 0.781399 0.781413
0.796809 0.791504 0.791609
0.805879 0.800684 0.800777
0.818125 0.813059 0.813301
0.831412 0.826671 0.826918
0.825641 0.820780 0.821069
0.820057 0.815069 0.815313
0.786660 0.781180 0.781191
0.786731 0.781155 0.781166
0.787676 0.782117 0.782137
0.789610 0.784082 0.784120
0.790514 0.785096 0.785048
0.793723 0.788273 0.788350
0.798129 0.792751 0.792846
0.803192 0.797948 0.798106
0.809390 0.804174 0.804356
0.816652 0.811563 0.811826
0.826388 0.821508 0.821801
0.834580 0.829885 0.830150
0.844877 0.840356 0.840741
0.856684 0.852476 0.852905
0.870297 0.866338 0.866759
0.862395 0.858223 0.858669
0.818098 0.813032 0.813274
0.818144 0.813078 0.813320
0.819049 0.814037 0.814285
0.820011 0.814988 0.815232
0.822663 0.817754 0.818026
0.824547 0.819622 0.819827
0.828353 0.823512 0.823817
0.832987 0.828249 0.828540
0.838522 0.833885 0.834242
0.845031 0.840628 0.840901
0.853652 0.849348 0.849653
0.862002 0.857935 0.858264
0.871039 0.867103 0.867527
0.881941 0.878282 0.878664
0.893620 0.890231 0.890614
0.906289 0.903310 0.903720
0.041006 0.073789 0.037240
0.039775 0.072630 0.036085
0.034267 0.067416 0.030947
0.066682 0.097314 0.061469
0.093674 0.121161 0.087263
0.128250 0.150934 0.120635
0.169477 0.186918 0.160773
0.218781 0.230990 0.209148
0.273084 0.280539 0.262830
0.327398 0.331003 0.316818
0.377868 0.378567 0.367206
0.423163 0.421750 0.412605
0.458843 0.456079 0.448469
0.488882 0.485148 0.478713
0.512747 0.508333 0.502783
0.533807 0.528911 0.524017
0.035900 0.068969 0.032468
0.049237 0.081444 0.044970
0.059552 0.090871 0.054708
0.075586 0.105259 0.069950
0.100031 0.126685 0.093379
0.131887 0.154077 0.124171
0.172611 0.189696 0.163852
0.221255 0.233220 0.211606
0.275071 0.282367 0.264782
0.329015 0.332491 0.318410
0.379776 0.380371 0.369104
0.423728 0.422290 0.413159
0.459634 0.456839 0.449269
0.489614 0.485860 0.479438
0.513531 0.509131 0.503587
0.534508 0.529592 0.524746
0.071486 0.101613 0.066040
0.074161 0.103989 0.068588
0.078722 0.108035 0.072943
0.089799 0.117781 0.083552
0.109793 0.135099 0.102778
0.139374 0.160568 0.131434
0.178006 0.194478 0.169114
0.225375 0.236957 0.215655
0.278267 0.285322 0.267960
0.331574 0.334917 0.320976
0.381915 0.382370 0.371256
0.426263 0.424711 0.415699
0.462921 0.460006 0.452577
0.491774 0.487960 0.481632
0.514830 0.510395 0.504898
0.535650 0.530772 0.525963
0.106270 0.132067 0.099379
0.107932 0.133499 0.100986
0.110564 0.135763 0.103522
0.117634 0.141815 0.110354
0.138151 0.159498 0.130250
0.166694 0.184473 0.158059
0.206574 0.220003 0.197160
0.252889 0.262000 0.242834
0.303936 0.309125 0.293462
0.354706 0.356642 0.344054
0.402085 0.401628 0.391495
0.443096 0.440897 0.432629
0.477280 0.473908 0.467033
0.503592 0.499437 0.493525
0.525181 0.520508 0.515364
0.544511 0.539394 0.534889
0.155286 0.174451 0.146928
0.156389 0.175412 0.148001
0.157398 0.176293 0.148991
0.164863 0.182854 0.156257
0.174408 0.191290 0.165610
0.206537 0.219952 0.197120
0.246042 0.255741 0.236061
0.291705 0.297752 0.281299
0.340702 0.343466 0.330068
0.388164 0.388351 0.377485
0.432268 0.430486 0.421747
0.468213 0.465123 0.457904
0.498857 0.494860 0.488784
0.521832 0.517233 0.511966
0.540787 0.535752 0.531102
0.557781 0.552463 0.548350
0.222182 0.234061 0.212521
0.222933 0.234756 0.213264
0.224246 0.235927 0.214555
0.230166 0.241303 0.220388
0.239340 0.249630 0.229434
0.251738 0.260947 0.241689
0.293454 0.299387 0.283042
0.338942 0.341814 0.328315
0.385866 0.386146 0.375206
0.429691 0.427998 0.419168
0.468892 0.465764 0.458568
0.501408 0.497319 0.491342
0.525912 0.521231 0.516094
0.545148 0.540064 0.535522
0.560902 0.555532 0.551480
0.575243 0.569640 0.565981
0.304861 0.309948 0.294370
0.305343 0.310407 0.294847
0.305866 0.310906 0.295355
0.311397 0.316038 0.300885
0.320828 0.324841 0.310248
0.332373 0.335675 0.321791
0.345964 0.348413 0.335308
0.391361 0.391391 0.380732
0.436163 0.434241 0.425675
0.476115 0.472768 0.465842
0.509789 0.505466 0.499799
0.536651 0.531724 0.526945
0.558734 0.553363 0.549237
0.573095 0.567521 0.563805
0.584839 0.579106 0.575725
0.596300 0.590418 0.587342
0.395879 0.395707 0.385233
0.396289 0.396071 0.385619
0.397857 0.397597 0.387224
0.400267 0.399854 0.389652
0.409139 0.408292 0.398533
0.419289 0.418048 0.408732
0.430906 0.429155 0.420353
0.445978 0.443668 0.435510
0.488240 0.484501 0.478060
0.523809 0.519159 0.513934
0.551611 0.546376 0.542033
0.574323 0.568733 0.565034
0.592380 0.586554 0.583351
0.602078 0.596140 0.593181
0.611677 0.605661 0.602905
0.620417 0.614301 0.611770
0.485291 0.481666 0.475100
0.485504 0.481866 0.475322
0.485291 0.481666 0.475100
0.489426 0.485674 0.479247
0.495393 0.491457 0.485275
0.502484 0.498389 0.492422
0.512968 0.508600 0.503027
0.524919 0.520242 0.515113
0.538619 0.533694 0.528941
0.569909 0.564366 0.560551
0.593871 0.588029 0.584864
0.614349 0.608266 0.605625
0.625440 0.619294 0.616880
0.634446 0.628219 0.626008
0.640842 0.634566 0.632510
0.646938 0.640709 0.638745
0.560979 0.555609 0.551502
0.561074 0.555700 0.551655
0.560979 0.555609 0.551502
0.563966 0.558528 0.554583
0.568214 0.562711 0.558869
0.573633 0.568052 0.564352
0.581766 0.576075 0.572616
0.591037 0.585211 0.581995
0.601849 0.595903 0.592935
0.614067 0.607992 0.605368
0.635551 0.629356 0.627180
0.652561 0.646266 0.644410
0.663581 0.657290 0.655622
0.669170 0.662905 0.661423
0.672211 0.665871 0.664376
0.675931 0.669585 0.668202
0.621931 0.615820 0.613352
0.622065 0.615902 0.613458
0.621931 0.615820 0.613352
0.623991 0.617837 0.615390
0.628089 0.621903 0.619571
0.632853 0.626621 0.624420
0.638678 0.632451 0.630327
0.646329 0.640034 0.638068
0.655418 0.649107 0.647322
0.665907 0.659584 0.657999
0.677475 0.671166 0.669765
0.691710 0.685432 0.684349
0.701983 0.695668 0.694734
0.705350 0.699107 0.698168
0.705810 0.699502 0.698638
0.707262 0.700988 0.700129
0.672904 0.666568 0.665087
0.672945 0.666658 0.665215
0.672904 0.666568 0.665087
0.674836 0.668555 0.667136
0.678701 0.672399 0.671117
0.681550 0.675222 0.673975
0.687343 0.681060 0.679814
0.693972 0.687708 0.686587
0.702097 0.695852 0.694900
0.711739 0.705467 0.704639
0.722208 0.716041 0.715296
0.735574 0.729420 0.728980
0.742684 0.736645 0.736179
0.744656 0.738670 0.738211
0.742684 0.736645 0.736179
0.741764 0.735661 0.735262
0.716488 0.710297 0.709534
0.716635 0.710443 0.709610
0.716488 0.710297 0.709534
0.718475 0.712278 0.711562
0.720944 0.714868 0.714097
0.724397 0.718271 0.717578
0.729597 0.723446 0.722870
0.735831 0.729765 0.729246
0.743351 0.737326 0.736868
0.752109 0.746216 0.745863
0.762246 0.756475 0.756233
0.773968 0.768304 0.768186
0.787346 0.781845 0.781862
0.786966 0.781396 0.781409
0.782555 0.777023 0.776994
0.779346 0.773717 0.773655
0.753938 0.748046 0.747673
0.754154 0.748273 0.747908
0.753938 0.748046 0.747673
0.756065 0.750069 0.749862
0.758473 0.752545 0.752330
0.761256 0.755479 0.755221
0.765993 0.760281 0.760077
0.771709 0.766066 0.765935
0.778649 0.772958 0.772889
0.786651 0.781171 0.781182
0.795637 0.790248 0.790342
0.807477 0.802251 0.802444
0.818902 0.813854 0.814102
0.832983 0.828244 0.828535
0.825470 0.820569 0.820857
0.819728 0.814812 0.814985
0.786891 0.781340 0.781352
0.786988 0.781481 0.781496
0.787819 0.782354 0.782376
0.787979 0.782515 0.782538
0.791092 0.785703 0.785739
0.794397 0.788959 0.789042
0.797738 0.792358 0.792471
0.802887 0.797628 0.797785
0.809087 0.803958 0.804130
0.816429 0.811416 0.811566
0.824225 0.819292 0.819573
0.835355 0.830678 0.830894
0.844954 0.840433 0.840751
0.857517 0.853352 0.853730
0.870376 0.866417 0.866840
0.862240 0.858122 0.858510
0.818312 0.813251 0.813525
0.818402 0.813343 0.813586
0.818312 0.813251 0.813525
0.819274 0.814268 0.814517
0.822433 0.817468 0.817674
0.825165 0.820291 0.820489
0.828013 0.823175 0.823466
0.832722 0.827977 0.828231
0.838266 0.833692 0.833978
0.844881 0.840359 0.840745
0.853400 0.849089 0.849392
0.860902 0.856684 0.857125
0.871054 0.867119 0.867542
0.882001 0.878295 0.878774
0.893635 0.890246 0.890630
0.906399 0.903422 0.903832
0.036344 0.069392 0.032882
0.033776 0.066944 0.030490
0.051997 0.083985 0.047567
0.071556 0.101671 0.066107
0.097830 0.124770 0.091258
0.131264 0.153540 0.123559
0.172543 0.189653 0.163778
0.221686 0.233608 0.212012
0.275775 0.283017 0.265500
0.329847 0.333283 0.319238
0.379480 0.380111 0.368796
0.425537 0.424007 0.415007
0.461888 0.459001 0.451535
0.489793 0.486029 0.479641
0.513808 0.509400 0.503867
0.534698 0.529820 0.524967
0.044995 0.077514 0.040979
0.058359 0.089786 0.053574
0.067048 0.097644 0.061816
0.079878 0.109057 0.074041
0.103122 0.129349 0.096349
0.134889 0.156685 0.127078
0.175645 0.192402 0.166829
0.224137 0.235831 0.214449
0.277725 0.284827 0.267436
0.331413 0.334757 0.320811
0.380397 0.380958 0.369724
0.426115 0.424571 0.415529
0.462678 0.459754 0.452321
0.491520 0.487686 0.481371
0.514590 0.510155 0.504647
0.535424 0.530513 0.525705
0.077223 0.106713 0.071511
0.081646 0.110622 0.075737
0.082428 0.111307 0.076480
0.093206 0.120748 0.086810
0.112933 0.137796 0.105812
0.141316 0.162255 0.133321
0.181050 0.197189 0.172113
0.228280 0.239586 0.218525
0.280953 0.287779 0.270619
0.334009 0.337184 0.323381
0.382551 0.383027 0.371886
0.426671 0.425100 0.416124
0.464000 0.461050 0.453652
0.492667 0.488825 0.482536
0.515875 0.511427 0.505966
0.536590 0.531664 0.526880
0.108936 0.134358 0.101951
0.110417 0.135632 0.103378
0.113239 0.138058 0.106103
0.121207 0.144876 0.113810
0.134984 0.156761 0.127161
0.160288 0.178830 0.151804
0.195153 0.209767 0.185939
0.239475 0.249757 0.229567
0.289862 0.296045 0.279472
0.341167 0.343943 0.330550
0.389294 0.389396 0.378656
0.431750 0.429989 0.421224
0.468615 0.465509 0.458301
0.496050 0.492115 0.485936
0.519498 0.514962 0.509616
0.539919 0.534930 0.530231
0.157460 0.176363 0.149058
0.158536 0.177294 0.150095
0.159587 0.178205 0.151121
0.164870 0.182875 0.156286
0.176631 0.193250 0.167787
0.203931 0.217638 0.194561
0.238968 0.249296 0.229069
0.282065 0.288828 0.271736
0.329762 0.333201 0.319174
0.377278 0.378002 0.366617
0.421497 0.420180 0.410925
0.460389 0.457565 0.450021
0.490795 0.486998 0.480658
0.516643 0.512174 0.506749
0.535680 0.530784 0.525975
0.553591 0.548354 0.544099
0.224181 0.235872 0.214476
0.224935 0.236553 0.215222
0.226230 0.237732 0.216521
0.229047 0.240292 0.219302
0.238431 0.248808 0.228554
0.252907 0.262017 0.242847
0.290526 0.296660 0.280146
0.333059 0.336298 0.322451
0.378207 0.378896 0.367543
0.421512 0.420203 0.410947
0.459371 0.456581 0.448996
0.494306 0.490428 0.484209
0.520571 0.516013 0.510693
0.539505 0.534520 0.529821
0.556529 0.551259 0.547033
0.571538 0.565970 0.562213
0.306610 0.311572 0.296108
0.307148 0.312072 0.296628
0.307610 0.312544 0.297111
0.310166 0.314903 0.299650
0.318674 0.322826 0.308115
0.331056 0.334403 0.320438
0.346814 0.349229 0.336174
0.389044 0.389180 0.378367
0.431727 0.429967 0.421201
0.470614 0.467448 0.460331
0.504401 0.500264 0.494390
0.532235 0.527395 0.522444
0.552058 0.546814 0.542538
0.568949 0.563422 0.559618
0.581141 0.575459 0.571964
0.593140 0.587298 0.584103
0.397433 0.397166 0.386804
0.397759 0.397469 0.387133
0.398428 0.398126 0.387820
0.400718 0.400333 0.390097
0.406987 0.406260 0.396350
0.416916 0.415796 0.406340
0.430706 0.428992 0.420205
0.446563 0.444228 0.436132
