Assets/06_Vintage_ LUTs_B&W.cube
LUT_3D_SIZE 6
0.042909 0.075568 0.039022
0.061915 0.093006 0.056943
0.167553 0.185244 0.158910
0.325910 0.329602 0.315338
0.459161 0.456379 0.448784
0.533197 0.528377 0.523454
0.104633 0.130653 0.097809
0.117389 0.141608 0.110116
0.212322 0.225147 0.202806
0.362320 0.363862 0.351690
0.481787 0.478246 0.471559
0.547267 0.542120 0.537670
0.303756 0.308966 0.293289
0.312429 0.317006 0.301920
0.345463 0.347919 0.334811
0.479242 0.475818 0.469007
0.559947 0.554622 0.550528
0.598282 0.592377 0.589326
0.560417 0.554997 0.550922
0.564604 0.559166 0.555188
0.582238 0.576540 0.573073
0.613918 0.607845 0.605193
0.664685 0.658354 0.656751
0.677045 0.670735 0.669397
0.716071 0.709869 0.709116
0.719111 0.712883 0.712219
0.729821 0.723760 0.723235
0.752321 0.746442 0.746088
0.786841 0.781266 0.781279
0.779958 0.774269 0.774213
0.818003 0.812965 0.813207
0.819989 0.814999 0.815244
0.828356 0.823515 0.823820
0.845019 0.840615 0.840888
0.870971 0.867034 0.867498
0.906249 0.903229 0.903697
0.036344 0.069392 0.032882
0.071556 0.101671 0.066107
0.172543 0.189653 0.163778
0.329847 0.333283 0.319238
0.461888 0.459001 0.451535
0.534698 0.529820 0.524967
0.108936 0.134358 0.101951
0.121207 0.144876 0.113810
0.195153 0.209767 0.185939
0.341167 0.343943 0.330550
0.468615 0.465509 0.458301
0.539919 0.534930 0.530231
0.306610 0.311572 0.296108
0.310166 0.314903 0.299650
0.346814 0.349229 0.336174
0.470614 0.467448 0.460331
0.552058 0.546814 0.542538
0.593140 0.587298 0.584103
0.561934 0.556503 0.552498
0.563015 0.557589 0.553597
0.581060 0.575375 0.571873
0.614322 0.608240 0.605598
0.661593 0.655275 0.653620
0.674048 0.667764 0.666328
0.717042 0.710823 0.710064
0.717992 0.711788 0.711017
0.728824 0.722741 0.722111
0.751826 0.745887 0.745687
0.788531 0.783077 0.783106
0.778527 0.772918 0.772848
0.818686 0.813677 0.813913
0.819698 0.814669 0.814922
0.827658 0.822798 0.823098
0.844505 0.840019 0.840358
0.871083 0.867148 0.867571
0.906532 0.903533 0.903920
0.104217 0.130304 0.097406
0.125331 0.148416 0.117805
0.192565 0.207426 0.183385
0.345894 0.348367 0.335261
0.471203 0.468015 0.460910
0.540858 0.535820 0.531184
0.165756 0.183635 0.157140
0.150586 0.170318 0.142343
0.215169 0.227720 0.205605
0.357438 0.359208 0.346772
0.476855 0.473498 0.466601
0.546016 0.540895 0.536391
0.318588 0.322761 0.308025
0.322141 0.326061 0.311539
0.358377 0.360119 0.347710
0.448670 0.446244 0.438222
0.538303 0.533366 0.528603
0.590841 0.585016 0.581778
0.568061 0.562562 0.558758
0.569213 0.563697 0.559868
0.580460 0.574768 0.571275
0.618038 0.611920 0.609386
0.656377 0.650054 0.648350
0.673315 0.666939 0.665540
0.720844 0.714691 0.713988
0.721843 0.715668 0.714915
0.728343 0.722293 0.721652
0.752634 0.746667 0.746439
0.789908 0.784416 0.784458
0.779292 0.773596 0.773534
0.821550 0.816553 0.816817
0.821693 0.816734 0.816999
0.828962 0.824160 0.824468
0.846039 0.841580 0.841925
0.873202 0.869338 0.869743
0.908770 0.905798 0.906251
0.191002 0.206042 0.181859
0.210045 0.223126 0.200574
0.276277 0.283473 0.265982
0.376005 0.376839 0.365352
0.491159 0.487337 0.480986
0.552788 0.547528 0.543262
0.248540 0.258026 0.238524
0.220086 0.232180 0.210444
0.287221 0.293592 0.276844
0.387730 0.387901 0.377102
0.497592 0.493635 0.487517
0.557796 0.552476 0.548308
0.410476 0.409552 0.399835
0.400411 0.400007 0.389753
0.392492 0.392441 0.381819
0.473353 0.470106 0.463081
0.553407 0.548171 0.543905
0.600477 0.594546 0.591565
0.580104 0.574435 0.570933
0.581273 0.575588 0.572109
0.593910 0.588080 0.584916
0.629526 0.623343 0.621073
0.674193 0.667909 0.666476
0.706634 0.700425 0.699510
0.728696 0.722401 0.721844
0.729648 0.723498 0.722921
0.736726 0.730641 0.730140
0.762926 0.757163 0.756929
0.798349 0.793012 0.793103
0.799957 0.794616 0.794747
0.827352 0.822486 0.822708
0.828297 0.823455 0.823759
0.834873 0.830143 0.830410
0.859580 0.855398 0.855781
0.883447 0.879785 0.880214
0.915769 0.912992 0.913377
0.272456 0.279943 0.262191
0.286682 0.293102 0.276306
0.339628 0.342442 0.328991
0.424000 0.422547 0.413431
0.520467 0.515907 0.510591
0.570474 0.564920 0.561117
0.317053 0.321315 0.306488
0.293162 0.299105 0.282747
0.346928 0.349333 0.336288
0.431210 0.429444 0.420685
0.526657 0.521967 0.516840
0.575228 0.569624 0.565965
0.453961 0.451365 0.443564
0.441866 0.439710 0.431385
0.434647 0.432763 0.424140
0.500321 0.496253 0.490244
0.576012 0.570395 0.566737
0.615117 0.609026 0.606402
0.604133 0.598176 0.595287
0.601242 0.595302 0.592322
0.603422 0.597471 0.594552
0.645028 0.638783 0.636822
0.687033 0.680731 0.679497
0.716604 0.710411 0.709578
0.740785 0.734749 0.734330
0.741871 0.735857 0.735372
0.749754 0.743732 0.743427
0.775189 0.769498 0.769405
0.811274 0.806184 0.806287
0.838177 0.833599 0.833842
0.836434 0.831683 0.832029
0.837451 0.832857 0.833138
0.844108 0.839564 0.839947
0.867755 0.863735 0.864136
0.901528 0.898423 0.898842
0.925591 0.923138 0.923513
0.326025 0.329727 0.315452
0.335831 0.338911 0.325199
0.374354 0.375225 0.363696
0.439307 0.437256 0.428805
0.517822 0.513322 0.507943
0.593217 0.587382 0.584200
0.357746 0.359554 0.347127
0.344681 0.347191 0.334024
0.381920 0.382376 0.371234
0.445880 0.443575 0.435422
0.522701 0.518072 0.512828
0.597742 0.591844 0.588816
0.463208 0.460283 0.452851
0.454295 0.451649 0.443862
0.465705 0.462697 0.455363
0.513460 0.509063 0.503516
0.571866 0.566311 0.562564
0.634519 0.628321 0.626110
0.591263 0.585434 0.582226
0.588385 0.582581 0.579290
0.595083 0.589217 0.586069
0.657668 0.651341 0.649590
0.688628 0.682292 0.681169
0.730282 0.724146 0.723503
0.712204 0.706038 0.705174
0.711451 0.705131 0.704318
0.717631 0.711422 0.710686
0.756826 0.750990 0.750680
0.819482 0.814481 0.814733
0.847501 0.843035 0.843432
0.849322 0.844871 0.845209
0.850270 0.845863 0.846270
0.857092 0.852895 0.853228
0.879190 0.875437 0.875868
0.909957 0.907055 0.907456
0.926242 0.923807 0.924190
