Assets/CG01 - LUT.cube
TITLE "Generated by Resolve"
LUT_3D_SIZE 5
0 0 0
0.27335 0.00546273 0
0.599435 0 0
0.920409 0 0
1 0 0
0.0268711 0.226688 0.0497292
0.265248 0.235767 0.0250401
0.583032 0.2215 0
0.893111 0.200992 0
1 0.177234 0
0.0931716 0.463539 0.111559
0.31986 0.469154 0.153613
0.566354 0.483497 0.0648508
0.892653 0.468696 0
1 0.454597 0
0.158022 0.700923 0.172259
0.394415 0.701427 0.23592
0.601038 0.721065 0.201846
0.865843 0.731777 0.116258
1 0.721752 0.0210574
0.209537 0.891554 0.220539
0.453498 0.888792 0.293462
0.655344 0.906462 0.291051
0.878553 0.926833 0.211261
1 0.931212 0.157107
0 0.00366217 0.203464
0.275624 0 0.292317
0.60145 0 0.271153
0.925368 0 0.216205
1 0 0.12813
0 0.263828 0.260212
0.230991 0.248417 0.245884
0.534401 0.25687 0.239475
0.871397 0.21146 0.174762
1 0.165942 0.0849928
0 0.536126 0.225315
0.294011 0.486534 0.299519
0.530556 0.494697 0.283726
0.847532 0.48394 0.219196
1 0.465049 0.132357
0 0.775876 0.245411
0.358862 0.723842 0.359731
0.586099 0.728618 0.404883
0.830076 0.743252 0.315206
1 0.733791 0.260533
0.0350805 0.961929 0.286015
0.410147 0.914488 0.407523
0.647044 0.914549 0.472435
0.853361 0.935424 0.426627
1 0.942824 0.342931
0 0.0173495 0.417212
0.196292 0 0.530159
0.59057 0 0.592905
0.914443 0 0.578256
1 0 0.548363
0 0.26508 0.473777
0.195911 0.262196 0.45713
0.544701 0.227039 0.549065
0.867903 0.212634 0.531746
1 0.153246 0.495384
0 0.539605 0.525063
0.17966 0.523827 0.512154
0.497002 0.508476 0.497993
0.794629 0.511955 0.491279
1 0.529732 0.489357
0 0.822721 0.481331
0.153796 0.797559 0.47567
0.557855 0.747219 0.549249
0.792844 0.754879 0.538735
1 0.749249 0.504067
0 1 0.455772
0.204242 0.992233 0.484031
0.609674 0.937804 0.596872
0.836164 0.942504 0.639796
1 0.953689 0.565087
0 0.0310521 0.63151
0.131746 0.0177615 0.719265
0.530632 0 0.871153
0.904952 0 0.89456
1 0 0.884443
0 0.277363 0.663142
0.159808 0.276005 0.671168
0.462959 0.252338 0.783627
0.859464 0.205478 0.851026
1 0.191821 0.841047
0 0.533379 0.757534
0.185245 0.525338 0.725216
0.461341 0.522744 0.708629
0.80914 0.487648 0.80293
1 0.474281 0.793118
0 0.815808 0.78941
0.126375 0.8 0.776577
0.444633 0.784482 0.763882
0.761166 0.768032 0.75256
0.999008 0.767895 0.745174
0 1 0.755459
0.0747997 1 0.741848
0.4103 1 0.731243
0.806485 0.961303 0.787091
0.994751 0.966354 0.788434
0 0.0420386 0.803677
0.095201 0.0321508 0.880491
0.452079 0 1
0.872038 0 1
1 0 1
0 0.288365 0.824491
0.13077 0.287068 0.843168
0.409094 0.272953 0.934112
0.814786 0.215518 1
1 0.188251 1
0 0.539925 0.916747
0.168002 0.535012 0.876173
0.432242 0.533837 0.880522
0.743099 0.507515 0.996674
1 0.470283 1
0 0.805982 0.985916
0.151766 0.793149 0.965743
0.452415 0.784298 0.938888
0.732326 0.781109 0.916976
1 0.753292 0.99588
0 1 1
0.0829938 1 0.988434
0.40119 1 0.975845
0.719203 0.990814 0.963058
0.971145 0.977188 0.955856
