Assets/CG01 - LUT.cube
TITLE "Generated by Resolve"
LUT_3D_SIZE 33
0 0 0
0.000167849 0 0
0.040116 0 0
0.0802319 0 0
0.111498 0.00265507 0
0.150744 0.00650034 0
0.191333 0.00686656 0
0.232364 0.0065919 0
0.27335 0.00546273 0
0.31429 0.00352483 0
0.355184 0.000854505 0
0.396017 0 0
0.43679 0 0
0.477516 0 0
0.518166 0 0
0.558801 0 0
0.599435 0 0
0.640177 0 0
0.680873 0 0
0.721569 0 0
0.761318 0 0
0.800961 0 0
0.840726 0 0
0.880568 0 0
0.920409 0 0
0.960266 0 0
0.999924 0 0
1 0 0
1 0 0
1 0 0
1 0 0
1 0 0
1 0 0
0 0.0213779 0
0 0.0195773 0.000915541
0.0382696 0.0189212 0
0.0765393 0.018204 0
0.115221 0.0183413 0
0.154131 0.0194553 0
0.193378 0.020676 0
0.232898 0.0216831 0
0.272633 0.0222629 0
0.312551 0.0223392 0
0.352544 0.0218662 0
0.39263 0.0208438 0
0.432776 0.0192721 0
0.472938 0.0171817 0
0.513146 0.0145571 0
0.553414 0.0110018 0
0.593774 0.00608835 0
0.634241 0 0
0.674708 0 0
0.715007 0 0
0.754314 0 0
0.793942 0 0
0.833646 0 0
0.873396 0 0
0.913161 0 0
0.952911 0 0
0.992462 0 0
1 0 0
1 0 0
1 0 0
1 0 0
1 0 0
1 0 0
0 0.0501717 0.00267033
0.00932326 0.0483406 0.0129702
0.037583 0.0504616 0.00424201
0.0773632 0.0490578 0
0.117205 0.050721 0
0.155184 0.0502327 0
0.193713 0.0501564 0
0.232609 0.0502937 0
0.271763 0.0504463 0
0.311162 0.0504616 0
0.350729 0.0502327 0
0.390494 0.0493172 0
0.430259 0.0487678 0
0.470176 0.0472725 0
0.510216 0.0449378 0
0.550378 0.0415198 0
0.590692 0.0364691 0
0.631067 0.030518 0
0.670924 0.0181277 0
0.710414 0.00926223 0
0.750057 0.0030518 0
0.789746 0 0
0.82948 0 0
0.869245 0 0
0.908995 0 0
0.948775 0 0
0.988312 0 0
1 0 0
1 0 0
1 0 0
1 0 0
1 0 0
1 0 0
0 0.0793469 0.0106508
0.0189212 0.077348 0.0221256
0.0449226 0.0792859 0.0217136
0.0755932 0.0809949 0.00755322
0.115496 0.0796368 0
0.156237 0.079408 0
0.195605 0.0830091 0
0.233661 0.0825818 0
0.272129 0.0822766 0
0.310933 0.082002 0
0.349966 0.0816358 0
0.389227 0.0807965 0
0.428687 0.0797894 0
0.468315 0.078172 0
0.508095 0.0757458 0
0.548058 0.0722362 0
0.58819 0.0672465 0
0.627405 0.054612 0
0.666896 0.0480659 0
0.706477 0.0425422 0
0.746136 0.0374609 0
0.785824 0.0326848 0
0.825513 0.027863 0
0.865232 0.0229343 0
0.904952 0.0178836 0
0.944686 0.0126955 0
0.984207 0.00741588 0
1 0.00233463 0
1 0 0
1 0 0
1 0 0
1 0 0
1 0 0
0 0.108721 0.0185092
0.0280003 0.1066 0.030518
0.0542 0.108156 0.0335851
0.0808881 0.110597 0.026627
0.113649 0.112078 0.0109865
0.153429 0.110552 0.00209049
0.194659 0.109483 0
0.234104 0.108782 0
0.272786 0.108598 0
0.311635 0.1093 0
0.350713 0.111681 0
0.389487 0.110735 0
0.428504 0.109499 0
0.46775 0.107774 0
0.506844 0.102174 0
0.54583 0.0955978 0
0.585077 0.0905623 0
0.62443 0.0857557 0
0.663859 0.0807965 0
0.703349 0.0761425 0
0.742901 0.0716564 0
0.782483 0.0670787 0
0.82208 0.0623789 0
0.861708 0.0575875 0
0.90135 0.0529183 0
0.941009 0.047837 0
0.980453 0.042649 0
1 0.0376287 0
1 0.032929 0
1 0.0285496 0
1 0.0245365 0
1 0.0208896 0
1 0.0176547 0
0.0015259 0.138155 0.0263371
0.0368048 0.135958 0.0386511
0.063859 0.137087 0.0438239
0.0896162 0.139315 0.0416266
0.117449 0.141878 0.0302892
0.151629 0.142962 0.0143587
0.191379 0.141649 0.00462348
0.2327 0.140108 0
0.272908 0.138781 0
0.311757 0.137591 0
0.350271 0.136431 0
0.38883 0.135119 0
0.427512 0.133516 0
0.466316 0.131487 0
0.505257 0.128786 0
0.544259 0.125872 0
0.583352 0.122728 0
0.622522 0.119387 0
0.661768 0.115923 0
0.701091 0.112383 0
0.740459 0.108568 0
0.779858 0.104524 0
0.819318 0.100237 0
0.858808 0.0956893 0
0.898329 0.0908675 0
0.937865 0.0857404 0
0.977218 0.0800793 0
1 0.0748455 0
1 0.0699321 0
1 0.0653697 0
1 0.0611887 0
1 0.0574197 0
1 0.054078 0
0.0100404 0.167636 0.0341497
0.0454414 0.165393 0.0466468
0.073518 0.166094 0.053254
0.0990005 0.168139 0.0537728
0.125231 0.170718 0.0469062
0.154406 0.173098 0.0334173
0.189578 0.173892 0.0177005
0.229236 0.172747 0.00737011
0.270527 0.170977 0
0.311315 0.169345 0
0.35079 0.167712 0
0.389364 0.16614 0
0.427817 0.164477 0
0.466316 0.162524 0
0.504921 0.160464 0
0.543664 0.158206 0
0.582559 0.155749 0
0.621515 0.15317 0
0.660548 0.150332 0
0.699641 0.147311 0
0.738796 0.144076 0
0.778012 0.140642 0
0.817288 0.137026 0
0.856611 0.133181 0
0.895964 0.129122 0
0.935347 0.124865 0
0.974563 0.120409 0
1 0.115984 0
1 0.111742 0
1 0.107698 0
1 0.103899 0
1 0.10042 0
1 0.097261 0
0.0184939 0.197147 0.0419471
0.0539864 0.194873 0.054551
0.0829786 0.195209 0.0622873
0.108476 0.197086 0.0645457
0.134142 0.199405 0.0615702
0.16112 0.202045 0.0519722
0.191577 0.204257 0.0366674
0.227451 0.204852 0.0210574
0.267063 0.203861 0.00987259
0.308248 0.202014 0.000900282
0.349432 0.200168 0
0.389471 0.198276 0
0.428489 0.19646 0
0.467002 0.19469 0
0.505425 0.192859 0
0.543908 0.190906 0
0.582483 0.1888 0
0.62118 0.186526 0
0.659953 0.184085 0
0.698878 0.181415 0
0.737835 0.178622 0
0.776852 0.175631 0
0.81593 0.172473 0
0.855055 0.169146 0
0.89424 0.165637 0
0.933471 0.161959 0
0.972519 0.158099 0
1 0.154299 0
1 0.150698 0
1 0.14728 0
1 0.144106 0
1 0.141176 0
1 0.138552 0
0.0268711 0.226688 0.0497292
0.0624552 0.224384 0.0624399
0.0921798 0.224414 0.070985
0.118029 0.226062 0.0746166
0.143511 0.228199 0.0741894
0.169497 0.230762 0.0679026
0.197345 0.233387 0.0560616
0.228931 0.235325 0.0402991
0.265248 0.235767 0.0250401
0.304799 0.234775 0.0140993
0.34583 0.232944 0.00570687
0.38732 0.231113 0
0.427863 0.229129 0
0.467399 0.227176 0
0.506157 0.225299 0
0.54461 0.223423 0
0.583032 0.2215 0
0.6215 0.219455 0
0.660044 0.217273 0
0.69868 0.214954 0
0.737408 0.212497 0
0.776226 0.209842 0
0.815137 0.20705 0
0.854109 0.204089 0
0.893111 0.200992 0
0.932174 0.197742 0
0.971054 0.194339 0
1 0.191028 0
1 0.187839 0
1 0.184848 0
1 0.182055 0
1 0.179507 0
1 0.177234 0
0.0352331 0.256245 0.0575113
0.0708782 0.253925 0.0702983
0.101198 0.253712 0.079469
0.127565 0.2551 0.0842451
0.15288 0.257145 0.0853437
0.17847 0.259541 0.0821088
0.205097 0.262181 0.0733349
0.233829 0.264698 0.0599985
0.266346 0.266361 0.0441138
0.303014 0.266697 0.0292363
0.342504 0.265736 0.0183261
0.383337 0.26392 0.0109712
0.425055 0.262119 0
0.46598 0.26009 0
0.505959 0.25803 0
0.545174 0.256031 0
0.583764 0.254108 0
0.622187 0.252171 0
0.660594 0.250156 0
0.699046 0.248051 0
0.73756 0.245823 0
0.77615 0.243473 0
0.814847 0.240986 0
0.85359 0.238346 0
0.89247 0.235554 0
0.931365 0.232639 0
0.970108 0.229587 0
1 0.226627 0
1 0.223774 0
1 0.221103 0
1 0.218631 0
1 0.216388 0
1 0.214359 0
0.0435645 0.285817 0.0653086
0.0792554 0.283497 0.0781415
0.110063 0.28307 0.0877546
0.137011 0.284184 0.093431
0.162341 0.286137 0.095552
0.187747 0.28838 0.0942855
0.213687 0.290929 0.088426
0.240925 0.293584 0.0781872
0.270481 0.295995 0.0637522
0.303807 0.297414 0.0481422
0.340734 0.297627 0.0336461
0.380163 0.296712 0.0228428
0.420859 0.294911 0.0164492
0.462654 0.293141 0.000213626
0.503838 0.291096 0
0.544259 0.288975 0
0.583856 0.2869 0
0.622797 0.284886 0
0.661311 0.282902 0
0.699718 0.280903 0
0.738125 0.278828 0
0.776547 0.276661 0
0.815045 0.274403 0
0.853605 0.272023 0
0.892256 0.26952 0
0.930953 0.266896 0
0.969497 0.264164 0
1 0.261433 0
1 0.258869 0
1 0.256458 0
1 0.254231 0
1 0.252186 0
1 0.250355 0
0.0518807 0.315419 0.0730907
0.0875715 0.313069 0.0859236
0.118822 0.312474 0.0958572
0.146334 0.313344 0.102327
0.171817 0.31516 0.105333
0.197208 0.317266 0.10573
0.222644 0.319753 0.101762
0.249104 0.322362 0.0941634
0.276951 0.325002 0.0829175
0.307317 0.327245 0.0676127
0.341299 0.328435 0.0523842
0.378424 0.328588 0.0382696
0.417807 0.327688 0.0276036
0.458412 0.325963 0.0210117
0.50016 0.324163 0.005066
0.541588 0.322148 0
0.58233 0.319997 0
0.622293 0.317845 0
0.661646 0.31574 0
0.700359 0.31371 0
0.738827 0.311681 0
0.777203 0.309636 0
0.815595 0.307515 0
0.854017 0.305303 0
0.8925 0.303014 0
0.931029 0.300618 0
0.969436 0.2981 0
1 0.295674 0
1 0.293339 0
1 0.291157 0
1 0.289082 0
1 0.287221 0
1 0.285542 0
0.0601816 0.345022 0.0808881
0.0958419 0.342672 0.0936446
0.127474 0.341924 0.103883
0.15552 0.342565 0.110979
0.181277 0.344228 0.114809
0.206531 0.346273 0.116121
0.231876 0.348608 0.114107
0.257771 0.351156 0.108415
0.284657 0.353811 0.0993362
0.313176 0.35639 0.0871138
0.34432 0.358419 0.071931
0.378775 0.359472 0.0568551
0.416068 0.359548 0.043122
0.455406 0.358663 0.0326238
0.495918 0.357015 0.0259098
0.537591 0.355215 0.0106355
0.579202 0.353216 0
0.620218 0.351049 0
0.660517 0.348867 0
0.70016 0.3467 0
0.739269 0.344564 0
0.777844 0.342519 0
0.816281 0.340459 0
0.854658 0.338369 0
0.893034 0.336202 0
0.931456 0.333959 0
0.969711 0.331655 0
1 0.329397 0
1 0.32726 0
1 0.325246 0
1 0.323384 0
1 0.321675 0
1 0.320165 0
0.0684672 0.37464 0.0886091
0.104082 0.372274 0.101335
0.136034 0.37142 0.111833
0.164553 0.371862 0.119448
0.190707 0.373312 0.124071
0.215961 0.375296 0.126116
0.241291 0.377478 0.12575
0.266728 0.379995 0.121553
0.29305 0.382589 0.114427
0.320409 0.38526 0.104112
0.349554 0.387732 0.0910506
0.381384 0.389578 0.0764019
0.416266 0.390509 0.0615549
0.453681 0.390524 0.0482032
0.492973 0.389654 0.0378882
0.533425 0.388067 0.0311284
0.57496 0.386252 0.0169223
0.616709 0.384298 0
0.657908 0.382147 0
0.698543 0.379919 0
0.738491 0.377707 0
0.777859 0.37554 0
0.816785 0.373404 0
0.855299 0.371328 0
0.893706 0.369238 0
0.932082 0.367086 0
0.97023 0.364904 0
1 0.362799 0
1 0.360815 0
1 0.358938 0
1 0.357214 0
1 0.355642 0
1 0.354238 0
0.0767529 0.404257 0.0962844
0.112306 0.401892 0.10901
0.144533 0.400916 0.119722
0.173495 0.40119 0.127794
0.200061 0.402457 0.133089
0.225376 0.404349 0.13579
0.25069 0.406439 0.136538
0.275914 0.40885 0.133883
0.301762 0.411414 0.128328
0.328466 0.414054 0.119921
0.356329 0.416693 0.108568
0.386069 0.419074 0.0950179
0.41854 0.420706 0.0812848
0.453742 0.42153 0.0664988
0.491264 0.4215 0.0535134
0.530526 0.420645 0.0434119
0.570916 0.419104 0.0366369
0.612268 0.417304 0.0239414
0.654154 0.415381 0.00404364
0.695537 0.413245 0
0.736416 0.411017 0
0.776638 0.408759 0
0.816312 0.406546 0
0.855528 0.404349 0
0.894224 0.402228 0
0.932692 0.400122 0
0.970871 0.398001 0
1 0.395987 0
1 0.394095 0
1 0.392325 0
1 0.390707 0
1 0.389242 0
1 0.38793 0
0.0849928 0.43389 0.103929
0.120485 0.431525 0.11667
0.152972 0.430457 0.12755
0.18233 0.430564 0.136019
0.209308 0.431647 0.141909
0.234791 0.433433 0.145235
0.260029 0.435477 0.146685
0.285267 0.437751 0.145586
0.310719 0.440269 0.141314
0.33695 0.442863 0.134524
0.364004 0.445533 0.125002
0.392386 0.448127 0.112871
0.42269 0.450385 0.0990311
0.455711 0.45185 0.0860761
0.491188 0.452567 0.0716716
0.528817 0.452491 0.0590677
0.568048 0.451652 0.0491798
0.608362 0.450172 0.0424506
0.649622 0.448341 0.0315099
0.691508 0.446479 0.0100557
0.733059 0.444358 0
0.77409 0.44213 0
0.814633 0.439857 0
0.854566 0.437598 0
0.893996 0.43537 0
0.933043 0.433173 0
0.97142 0.431067 0
1 0.429068 0
1 0.427237 0
1 0.425544 0
1 0.423987 0
1 0.422599 0
1 0.421347 0
0.0931716 0.463539 0.111559
0.128664 0.461158 0.124315
0.161364 0.460014 0.135348
0.191089 0.459983 0.144152
0.218448 0.460883 0.150561
0.24419 0.462531 0.154513
0.269398 0.46453 0.156542
0.294743 0.466651 0.156817
0.31986 0.469154 0.153613
0.345693 0.471702 0.148165
0.372259 0.474327 0.140261
0.399695 0.476997 0.129793
0.42858 0.47953 0.117052
0.459464 0.481636 0.103548
0.492912 0.482979 0.0909285
0.528664 0.483604 0.0771038
0.566354 0.483497 0.0648508
0.60557 0.482673 0.0552071
0.645792 0.481224 0.0485389
0.686839 0.479393 0.0400244
0.728832 0.477577 0.0167849
0.770489 0.475502 0
0.811688 0.473274 0
0.852476 0.470985 0
0.892653 0.468696 0
0.932342 0.466438 0
0.971389 0.46421 0
1 0.462165 0
1 0.460334 0
1 0.458671 0
1 0.45716 0
1 0.455802 0
1 0.454597 0
0.10132 0.493187 0.119188
0.136828 0.490806 0.131945
0.169711 0.489586 0.143114
0.199756 0.489418 0.152209
0.227466 0.490181 0.159045
0.253529 0.491676 0.163607
0.278767 0.493614 0.16614
0.304006 0.495705 0.167132
0.329168 0.498054 0.165377
0.354635 0.500572 0.161044
0.380789 0.503166 0.154513
0.407645 0.505821 0.145602
0.435508 0.508476 0.13434
0.464881 0.510903 0.12134
0.49633 0.512856 0.108095
0.530144 0.514092 0.0958419
0.56611 0.514656 0.0830243
0.603876 0.514504 0.0708782
0.643046 0.513695 0.0614786
0.683207 0.512291 0.0549172
0.724041 0.51046 0.0492714
0.766079 0.508675 0.0242466
0.807858 0.50663 0.00242618
0.849226 0.504433 0
0.890196 0.502144 0
0.930587 0.49984 0
0.970291 0.497551 0
1 0.49543 0
1 0.493492 0
1 0.491798 0
1 0.490288 0
1 0.488945 0
1 0.48777 0
0.109453 0.52285 0.126802
0.144961 0.52047 0.139559
0.178027 0.519173 0.150851
0.208362 0.518898 0.160189
0.236423 0.519509 0.167422
0.262791 0.520851 0.172519
0.288136 0.522713 0.175555
0.313344 0.524758 0.177096
0.338582 0.52697 0.176699
0.36376 0.529473 0.173312
0.389548 0.532021 0.167941
0.416007 0.534646 0.160418
0.443168 0.537316 0.150652
0.471458 0.539925 0.138735
0.501289 0.54229 0.125429
0.533242 0.54406 0.112703
0.567391 0.545205 0.100832
0.603525 0.545693 0.0888228
0.641352 0.545525 0.0771496
0.680507 0.544717 0.0680095
0.720623 0.543343 0.0615854
0.761288 0.541527 0.0578317
0.803296 0.539773 0.0324712
0.845182 0.537774 0.00894179
0.886671 0.535592 0
0.927733 0.533318 0
0.968185 0.530999 0
1 0.528847 0
1 0.526879 0
1 0.525109 0
1 0.523522 0
1 0.522133 0
1 0.520928 0
0.117586 0.552514 0.134401
0.153079 0.550118 0.147173
0.186313 0.54876 0.158572
0.216907 0.548394 0.168124
0.245304 0.548867 0.175708
0.271977 0.550072 0.181277
0.29749 0.551827 0.184817
0.322683 0.553841 0.186847
0.347967 0.555947 0.187457
0.373007 0.558373 0.185107
0.398489 0.560906 0.180728
0.424582 0.5635 0.174395
0.451316 0.56614 0.165988
0.478798 0.568811 0.155459
0.5075 0.571374 0.143038
0.537774 0.573648 0.129564
0.570199 0.575265 0.117388
0.604639 0.576318 0.105867
0.64094 0.576745 0.0945907
0.678813 0.576547 0.0839094
0.717952 0.575753 0.0747997
0.757992 0.574411 0.0685283
0.798611 0.572641 0.0648203
0.840467 0.570886 0.0414893
0.882429 0.568917 0.0162203
0.924041 0.566766 0
0.965026 0.564508 0
1 0.562341 0
1 0.560342 0
1 0.558541 0
1 0.556924 0
1 0.555489 0
1 0.554269 0
0.125704 0.582177 0.142
0.161196 0.579797 0.154772
0.194553 0.578378 0.166247
0.225406 0.577905 0.176013
0.254108 0.578271 0.183902
0.281086 0.579339 0.189914
0.306813 0.580972 0.193957
0.332006 0.58294 0.196384
0.357244 0.585016 0.197528
0.382361 0.587304 0.196506
0.407584 0.589807 0.192981
0.433356 0.592371 0.187686
0.459709 0.59498 0.180468
0.486671 0.597665 0.171252
0.514549 0.600305 0.160067
0.543648 0.602808 0.14728
0.57438 0.604944 0.134112
0.607202 0.606455 0.122133
0.641901 0.607431 0.110979
0.67834 0.607813 0.100343
0.716258 0.607584 0.0904402
0.755367 0.60679 0.0820935
0.795377 0.605478 0.0757458
0.835935 0.603754 0.0721294
0.877623 0.602014 0.0514076
0.919646 0.600046 0.0242161
0.96112 0.59794 0.000244144
0.999634 0.59585 0
1 0.593881 0
1 0.59205 0
1 0.590417 0
1 0.588968 0
1 0.587686 0
0.133791 0.611856 0.149569
0.169284 0.609461 0.162341
0.202777 0.607996 0.173922
0.23386 0.607431 0.183841
0.262837 0.607691 0.192035
0.29012 0.608621 0.198428
0.316075 0.610147 0.20293
0.341344 0.612039 0.205783
0.366522 0.614084 0.207401
0.391806 0.616251 0.207568
0.416785 0.618723 0.204791
0.442283 0.621256 0.200381
0.46833 0.62385 0.194217
0.494942 0.626474 0.186206
0.522164 0.62916 0.176272
0.550393 0.631785 0.164553
0.579889 0.634195 0.15169
0.611093 0.63621 0.138781
0.644236 0.637644 0.12697
0.679149 0.638544 0.115938
0.715724 0.638865 0.106126
0.753689 0.638621 0.0969253
0.792767 0.637842 0.0892042
0.832746 0.636545 0.0834821
0.873243 0.634867 0.0797284
0.914717 0.633143 0.06215
0.956558 0.631205 0.0331884
0.995514 0.629267 0.00907912
1 0.627375 0
1 0.625605 0
1 0.623972 0
1 0.622492 0
1 0.621225 0
0.141894 0.641535 0.157137
0.177371 0.639139 0.169909
0.210971 0.637629 0.181567
0.242267 0.636988 0.191653
0.271504 0.637125 0.200092
0.299046 0.637964 0.206806
0.325277 0.639353 0.211765
0.350652 0.641169 0.21503
0.37583 0.643183 0.21706
0.401068 0.645304 0.217868
0.426108 0.647669 0.216251
0.451347 0.650172 0.212619
0.477104 0.652735 0.20737
0.503395 0.655344 0.200412
0.530221 0.658 0.191638
0.557763 0.660685 0.181079
0.586328 0.663264 0.168933
0.616205 0.665614 0.155871
0.647837 0.667475 0.143511
0.681285 0.668818 0.131884
0.716411 0.669642 0.121187
0.753094 0.669932 0.111955
0.791089 0.669673 0.103395
0.830167 0.668879 0.0962539
0.870069 0.667628 0.090959
0.910521 0.66598 0.0877394
0.951553 0.664256 0.0737469
0.990784 0.662516 0.0449989
1 0.660746 0.0209201
1 0.659068 0.000946059
1 0.657496 0
1 0.656077 0
1 0.654795 0
0.149966 0.671229 0.164706
0.185443 0.668818 0.177478
0.21915 0.667277 0.189197
0.250629 0.66656 0.199435
0.28011 0.666606 0.208103
0.307927 0.667308 0.215122
0.334417 0.668589 0.220493
0.35996 0.670329 0.224186
0.385122 0.672297 0.226551
0.41033 0.674372 0.227802
0.435492 0.676616 0.22739
0.460517 0.679103 0.22446
0.48603 0.681636 0.22002
0.512016 0.684215 0.213993
0.538537 0.686854 0.206287
0.565576 0.68954 0.196841
0.593439 0.692195 0.185748
0.622354 0.694728 0.173251
0.652598 0.697002 0.160067
0.684642 0.698726 0.148272
0.718349 0.699992 0.136873
0.753674 0.700755 0.126513
0.790448 0.700999 0.117815
0.828489 0.700725 0.109834
0.867521 0.699947 0.103227
0.907393 0.698711 0.0983597
0.947585 0.697108 0.0954299
0.985748 0.695445 0.0880598
1 0.693996 0.0608225
1 0.692378 0.0363012
1 0.690913 0.0167697
1 0.689555 0.000350958
1 0.688334 0
0.158022 0.700923 0.172259
0.1935 0.698512 0.185031
0.227298 0.696925 0.196796
0.258961 0.696147 0.207172
0.288685 0.696086 0.216052
0.316747 0.696696 0.223362
0.343496 0.697871 0.229099
0.369223 0.699504 0.233204
0.394415 0.701427 0.23592
0.419608 0.703471 0.237598
0.444877 0.705608 0.238132
0.469795 0.708049 0.23595
0.495064 0.710567 0.232227
0.520806 0.713115 0.227039
0.547021 0.715724 0.220279
0.57377 0.718379 0.211887
0.601038 0.721065 0.201846
0.629206 0.72369 0.19028
0.658473 0.726162 0.177584
0.689082 0.728344 0.164584
0.721477 0.729961 0.153094
0.755428 0.731167 0.141924
0.790921 0.731868 0.131914
0.827802 0.732067 0.123674
0.865843 0.731777 0.116258
0.904875 0.731014 0.11014
0.944488 0.729809 0.105684
0.982055 0.728344 0.103136
1 0.726757 0.10219
1 0.725567 0.0799268
1 0.724239 0.0570382
1 0.722896 0.0368353
1 0.721752 0.0210574
0.166079 0.730617 0.179797
0.201556 0.728206 0.192584
0.235447 0.726589 0.20441
0.267262 0.725734 0.214893
0.2972 0.725597 0.223957
0.325521 0.726101 0.231525
0.352514 0.727153 0.237613
0.378424 0.728695 0.2421
0.403708 0.730571 0.245167
0.42887 0.732586 0.247181
0.454093 0.734691 0.248142
0.479149 0.737011 0.24715
0.504204 0.739498 0.244068
0.529717 0.742031 0.239612
0.555673 0.74461 0.233707
0.582101 0.747234 0.226261
0.609003 0.74992 0.217243
0.636591 0.75259 0.206683
0.665064 0.755184 0.194736
0.694652 0.75758 0.182055
0.725658 0.759655 0.16936
0.758343 0.761196 0.157977
0.792538 0.762325 0.147066
0.828168 0.762982 0.137377
0.865125 0.763149 0.129564
0.903197 0.762844 0.122667
0.942 0.762081 0.117037
0.979049 0.760998 0.113146
1 0.759716 0.110872
1 0.758343 0.109895
1 0.757153 0.101778
1 0.756146 0.0821393
1 0.755123 0.0636454
0.174075 0.760143 0.187289
0.209552 0.757733 0.200076
0.243519 0.756085 0.211948
0.275486 0.755184 0.222538
0.305623 0.754971 0.231785
0.334173 0.755367 0.239597
0.361395 0.756329 0.24596
0.387533 0.757763 0.250828
0.412924 0.759564 0.254261
0.438087 0.761547 0.25658
0.463264 0.763638 0.257939
0.488502 0.765805 0.258045
0.51339 0.768292 0.255543
0.538689 0.770809 0.251743
0.564401 0.773358 0.246586
0.59057 0.775967 0.239994
0.617212 0.778607 0.231922
0.644312 0.781308 0.222324
0.672175 0.783963 0.211292
0.700954 0.786511 0.199039
0.730877 0.788846 0.186191
0.762264 0.790784 0.174075
0.795209 0.792264 0.162829
0.829633 0.793317 0.152178
0.865415 0.793927 0.142824
0.902449 0.794049 0.135393
0.940322 0.793744 0.129015
0.976623 0.793057 0.124102
1 0.792096 0.120699
1 0.790997 0.118624
1 0.789837 0.117571
1 0.788693 0.117311
1 0.787823 0.108446
0.181552 0.787808 0.194308
0.217029 0.785397 0.20708
0.251057 0.783734 0.218997
0.283162 0.782757 0.229694
0.313481 0.782483 0.239078
0.342245 0.782803 0.247105
0.36965 0.783688 0.253712
0.396002 0.785016 0.258915
0.421546 0.78674 0.262684
