Assets/CG01 - LUT.cube
TITLE "Generated by Resolve"
LUT_3D_SIZE 9
0 0 0
0.111498 0.00265507 0
0.27335 0.00546273 0
0.43679 0 0
0.599435 0 0
0.761318 0 0
0.920409 0 0
1 0 0
1 0 0
0 0.108721 0.0185092
0.113649 0.112078 0.0109865
0.272786 0.108598 0
0.428504 0.109499 0
0.585077 0.0905623 0
0.742901 0.0716564 0
0.90135 0.0529183 0
1 0.032929 0
1 0.0176547 0
0.0268711 0.226688 0.0497292
0.143511 0.228199 0.0741894
0.265248 0.235767 0.0250401
0.427863 0.229129 0
0.583032 0.2215 0
0.737408 0.212497 0
0.893111 0.200992 0
1 0.187839 0
1 0.177234 0
0.0601816 0.345022 0.0808881
0.181277 0.344228 0.114809
0.284657 0.353811 0.0993362
0.416068 0.359548 0.043122
0.579202 0.353216 0
0.739269 0.344564 0
0.893034 0.336202 0
1 0.32726 0
1 0.320165 0
0.0931716 0.463539 0.111559
0.218448 0.460883 0.150561
0.31986 0.469154 0.153613
0.42858 0.47953 0.117052
0.566354 0.483497 0.0648508
0.728832 0.477577 0.0167849
0.892653 0.468696 0
1 0.460334 0
1 0.454597 0
0.125704 0.582177 0.142
0.254108 0.578271 0.183902
0.357244 0.585016 0.197528
0.459709 0.59498 0.180468
0.57438 0.604944 0.134112
0.716258 0.607584 0.0904402
0.877623 0.602014 0.0514076
1 0.593881 0
1 0.587686 0
0.158022 0.700923 0.172259
0.288685 0.696086 0.216052
0.394415 0.701427 0.23592
0.495064 0.710567 0.232227
0.601038 0.721065 0.201846
0.721477 0.729961 0.153094
0.865843 0.731777 0.116258
1 0.726757 0.10219
1 0.721752 0.0210574
0.188403 0.813184 0.200732
0.320668 0.807721 0.245747
0.429404 0.811673 0.270329
0.530053 0.820005 0.275471
0.632288 0.830182 0.25684
0.742184 0.840772 0.21677
0.868482 0.848234 0.169528
1 0.849226 0.140383
1 0.846433 0.131411
0.209537 0.891554 0.220539
0.342687 0.88574 0.266194
0.453498 0.888792 0.293462
0.554498 0.896635 0.302693
0.655344 0.906462 0.291051
0.7617 0.917037 0.259419
0.878553 0.926833 0.211261
1 0.931334 0.1729
1 0.931212 0.157107
0 0 0.0969711
0.117632 0 0.142672
0.281727 0 0.135393
0.444709 0 0.119036
0.604623 0 0.0818647
0.765515 0 0.0240787
0.926436 0 0
1 0 0
1 0 0
0 0.126238 0.127443
0.0970016 0.118547 0.119905
0.247898 0.122286 0.117205
0.417746 0.10013 0.087953
0.579461 0.0771191 0.0508583
0.738933 0.0598611 0.0158236
0.898451 0.0410468 0
1 0.0209354 0
1 0.00556954 0
0 0.262745 0.110445
0.127352 0.238285 0.143526
0.247623 0.241337 0.13962
0.406271 0.235843 0.10869
0.564126 0.22533 0.0658274
0.721019 0.214237 0.027512
0.878813 0.20119 0
1 0.186877 0
1 0.175586 0
0 0.3832 0.11812
0.161089 0.35639 0.174563
0.277806 0.357565 0.200259
0.398383 0.365209 0.155032
0.560739 0.358846 0.118227
0.718242 0.350195 0.0656596
0.87274 0.341329 0.0150912
1 0.331395 0
1 0.323629 0
0.00384527 0.498924 0.143801
0.193912 0.474876 0.205066
0.315862 0.473594 0.240635
0.417975 0.483482 0.225101
0.548669 0.489235 0.171679
0.710796 0.483177 0.137316
0.873243 0.474113 0.0704662
1 0.466346 0.0130159
1 0.460533 0
0.0460975 0.614893 0.173816
0.226368 0.5935 0.235309
0.352605 0.590539 0.275669
0.453239 0.598871 0.278508
0.561227 0.60943 0.242069
0.698573 0.613382 0.189609
0.859693 0.607523 0.162768
1 0.599145 0.0874647
1 0.593301 0.0364843
0.0858015 0.731594 0.204669
0.258595 0.71223 0.2654
0.3879 0.708095 0.308492
0.49099 0.714626 0.322545
0.592538 0.72488 0.305135
0.706645 0.734936 0.258045
0.848157 0.737621 0.208667
0.999512 0.732387 0.188739
1 0.727626 0.144213
0.120699 0.842435 0.233845
0.288884 0.824506 0.293706
0.420325 0.819562 0.338476
0.526131 0.824704 0.358801
0.625895 0.834119 0.353704
0.731701 0.844755 0.32253
0.852628 0.853468 0.271061
0.989273 0.855085 0.227558
1 0.852247 0.211536
0.143877 0.92018 0.253819
0.309941 0.902876 0.31339
0.442557 0.89749 0.35903
0.550439 0.901701 0.382727
0.650111 0.910491 0.384131
0.75317 0.920882 0.36199
0.865309 0.93135 0.316686
0.989624 0.936919 0.268299
1 0.937102 0.241199
0 0.00366217 0.203464
0.0767376 0 0.257511
0.275624 0 0.292317
0.437522 0 0.285847
0.60145 0 0.271153
0.76379 0 0.248798
0.925368 0 0.216205
1 0 0.171862
1 0 0.12813
0 0.126925 0.233585
0.0800336 0.125399 0.224231
0.253422 0.108019 0.271229
0.415595 0.100145 0.263645
0.581689 0.0644236 0.241215
0.74345 0.0278477 0.212528
0.904677 0 0.171756
1 0 0.113787
1 0 0.051133
0 0.263828 0.260212
0.0723125 0.255894 0.253635
0.230991 0.248417 0.245884
0.380255 0.249165 0.24271
0.534401 0.25687 0.239475
0.70515 0.238254 0.214252
0.871397 0.21146 0.174762
1 0.179751 0.120287
1 0.165942 0.0849928
0 0.405249 0.23946
0.0583505 0.393011 0.23592
0.260334 0.368383 0.268711
0.380072 0.371008 0.267613
0.5337 0.368566 0.245945
0.6916 0.363317 0.218296
0.853544 0.349508 0.179797
1 0.33228 0.129778
1 0.323705 0.0968948
0 0.536126 0.225315
0.0906539 0.513939 0.242359
0.294011 0.486534 0.299519
0.411276 0.487022 0.327245
0.530556 0.494697 0.283726
0.690608 0.489342 0.255146
0.847532 0.48394 0.219196
0.997574 0.473152 0.170169
1 0.465049 0.132357
0 0.658335 0.228351
0.134829 0.629755 0.267277
0.326619 0.605112 0.329747
0.449928 0.60293 0.367422
0.550591 0.613199 0.352438
0.680476 0.618936 0.299031
0.841596 0.612711 0.271168
0.993851 0.607095 0.228992
1 0.600961 0.193881
0 0.775876 0.245411
0.176684 0.745724 0.29688
0.358862 0.723842 0.359731
0.486229 0.720195 0.401679
0.586099 0.728618 0.404883
0.693248 0.739345 0.369223
0.830076 0.743252 0.315206
0.981811 0.737652 0.289006
1 0.733791 0.260533
0.00564584 0.885527 0.268147
0.213611 0.85597 0.325826
0.38912 0.836103 0.387915
0.519265 0.831479 0.432197
0.621759 0.838041 0.445991
0.722972 0.848432 0.428519
0.837278 0.858381 0.381033
0.971176 0.860777 0.331289
1 0.857801 0.309651
0.0350805 0.961929 0.286015
0.238239 0.933242 0.34612
0.410147 0.914488 0.407523
0.541787 0.909346 0.452934
0.647044 0.914549 0.472435
0.746044 0.924651 0.463066
0.853361 0.935424 0.426627
0.97258 0.942275 0.375601
1 0.942824 0.342931
0 0.0104982 0.310246
0.0463111 0.00428778 0.352392
0.24416 0 0.429175
0.433204 0 0.442435
0.595026 0 0.436042
0.758663 0 0.424369
0.922499 0 0.405524
1 0 0.382513
1 0 0.362768
0 0.133028 0.327764
0.0621347 0.132296 0.330831
0.211688 0.121279 0.385046
0.411322 0.0971542 0.421561
0.573281 0.0885481 0.415259
0.73817 0.0608682 0.400107
0.902007 0.0152895 0.377707
1 0 0.351629
1 0 0.329534
0 0.260792 0.375799
0.0751812 0.256687 0.359686
0.213901 0.255283 0.350378
0.386831 0.237949 0.398276
0.548135 0.23122 0.391745
0.709117 0.225208 0.376699
0.874846 0.19707 0.351858
1 0.156756 0.31928
1 0.118212 0.290394
0 0.401648 0.392721
0.0464942 0.393713 0.386191
0.205936 0.38587 0.379705
0.364096 0.378576 0.371633
0.5131 0.377783 0.368856
0.662898 0.38497 0.366079
0.820523 0.39086 0.360967
0.981872 0.375189 0.338994
1 0.361227 0.318853
0 0.544762 0.371984
0.0180819 0.535439 0.365286
0.190188 0.523568 0.361563
0.392432 0.498604 0.393896
0.511849 0.500877 0.395727
0.6663 0.496895 0.375631
0.814633 0.500465 0.358129
0.967315 0.493782 0.335775
1 0.485817 0.315938
0 0.681056 0.35082
0.0227665 0.666728 0.350423
0.22121 0.644999 0.366659
0.426215 0.616831 0.424414
0.544213 0.616587 0.454337
0.661936 0.624674 0.411276
0.821805 0.618418 0.387152
0.965103 0.61828 0.362417
1 0.61471 0.341024
0 0.809995 0.339376
0.0511788 0.789303 0.352178
0.264851 0.760922 0.390753
0.458701 0.7355 0.454398
0.583337 0.732418 0.493996
0.682795 0.742962 0.480049
0.811795 0.748653 0.427466
0.96405 0.742412 0.401053
1 0.740658 0.381125
0 0.926329 0.340429
0.0908217 0.900618 0.367376
0.304585 0.870436 0.41854
0.489036 0.847761 0.482521
0.617609 0.843351 0.52604
0.716548 0.852033 0.529
0.823407 0.862898 0.493004
0.952926 0.866255 0.441825
1 0.86302 0.418357
0 1 0.346838
0.119829 0.977264 0.382208
0.330755 0.947265 0.438621
0.510079 0.926146 0.502068
0.640558 0.921141 0.547112
0.741329 0.928389 0.557961
0.843442 0.939071 0.535927
0.955978 0.947341 0.487648
1 0.948363 0.452201
0 0.0173495 0.417212
0.024567 0.0128786 0.453483
0.196292 0 0.530159
0.408988 0 0.58761
0.59057 0 0.592905
0.752361 0 0.586572
0.914443 0 0.578256
1 0 0.561654
1 0 0.548363
0 0.139895 0.428168
0.0441749 0.139193 0.437675
0.181155 0.13312 0.479881
0.378866 0.105394 0.557626
0.568826 0.0863813 0.572106
0.730724 0.0777905 0.565835
0.893034 0.0641794 0.556146
1 0.0102693 0.537072
1 0 0.522469
0 0.26508 0.473777
0.0640879 0.262791 0.454002
0.195911 0.262196 0.45713
0.344411 0.25156 0.510628
0.544701 0.227039 0.549065
0.706844 0.218372 0.542931
0.867903 0.212634 0.531746
1 0.184604 0.512551
1 0.153246 0.495384
0 0.396399 0.512428
0.0587472 0.390753 0.501625
0.208408 0.386801 0.485496
0.346944 0.385473 0.476143
0.51928 0.368215 0.524941
0.681254 0.360388 0.518822
0.833829 0.36788 0.507836
0.990311 0.355047 0.491096
1 0.340322 0.475334
0 0.539605 0.525063
0.0202945 0.531655 0.518563
0.17966 0.523827 0.512154
0.338933 0.516045 0.505669
0.497002 0.508476 0.497993
0.645487 0.50721 0.495399
0.794629 0.511955 0.491279
0.936904 0.521416 0.489845
1 0.529732 0.489357
0 0.683543 0.504768
0 0.674983 0.497856
0.150256 0.665858 0.491234
0.32137 0.654307 0.487221
0.523873 0.628931 0.519097
0.643153 0.630869 0.523873
0.797498 0.626871 0.502831
0.935302 0.630518 0.489036
1 0.634562 0.482155
0 0.822721 0.481331
0 0.811551 0.47628
0.153796 0.797559 0.47567
0.350973 0.776303 0.490898
0.557855 0.747219 0.549249
0.676738 0.746258 0.581399
0.792844 0.754879 0.538735
0.945586 0.746639 0.519905
1 0.749249 0.504067
0 0.948943 0.463737
0 0.933852 0.464607
0.179324 0.913878 0.476097
0.391806 0.886 0.512673
0.58854 0.859419 0.577356
0.713909 0.855711 0.618235
0.812787 0.866438 0.604501
0.934356 0.8719 0.554147
1 0.867796 0.532784
0 1 0.455772
0.000549325 1 0.462669
0.204242 0.992233 0.484031
0.420142 0.962249 0.531685
0.609674 0.937804 0.596872
0.73875 0.932784 0.641337
0.836164 0.942504 0.639796
0.940215 0.952377 0.600259
1 0.953689 0.565087
0 0.0242008 0.5243
0.00502022 0.0205386 0.557443
0.159533 0.00691234 0.622827
0.363241 0 0.705562
0.570428 0 0.741817
0.747814 0 0.743633
0.90959 0 0.737346
1 0 0.731228
1 0 0.722713
0 0.146883 0.531746
0.0261692 0.146075 0.544671
0.159304 0.141741 0.581048
0.330694 0.121935 0.657893
0.543755 0.0915541 0.716838
0.726116 0.075639 0.722896
0.887984 0.0670634 0.71664
1 0.0592355 0.710506
1 0.0399176 0.700771
0 0.270878 0.566735
0.0483253 0.269673 0.554528
0.177874 0.269108 0.56408
0.314366 0.263218 0.605814
0.511116 0.235737 0.684108
0.70219 0.216236 0.699977
0.864225 0.207599 0.693843
1 0.201022 0.687083
1 0.19115 0.676677
0 0.398703 0.618235
0.0524453 0.395071 0.599588
0.197238 0.39292 0.57995
0.328893 0.392386 0.583017
0.476249 0.382177 0.635615
0.677226 0.357244 0.676143
0.839567 0.348486 0.670161
0.988663 0.348898 0.661677
1 0.34432 0.651881
0 0.533349 0.647868
0.0386664 0.526467 0.638071
0.191608 0.520989 0.627329
0.341009 0.517113 0.611139
0.479438 0.515816 0.601694
0.651041 0.498695 0.651377
0.813611 0.49044 0.645609
0.957351 0.495079 0.635203
1 0.499077 0.628183
0 0.677668 0.657282
0 0.669703 0.650797
0.153124 0.661875 0.644434
0.312322 0.654108 0.638056
0.471504 0.646342 0.63154
0.63003 0.637736 0.625757
0.777401 0.637034 0.622156
0.918135 0.639918 0.617273
1 0.644312 0.615259
0 0.822187 0.637446
0 0.813809 0.63061
0.118639 0.805386 0.623835
0.281941 0.796414 0.617243
0.45211 0.785168 0.612924
0.654612 0.759396 0.64419
0.774105 0.760967 0.652049
0.920012 0.757092 0.631174
1 0.757992 0.62063
0 0.955352 0.614633
0 0.945678 0.608164
0.10695 0.93492 0.602899
0.283391 0.921523 0.60145
0.477974 0.901289 0.614313
0.687236 0.871138 0.672404
0.80676 0.869657 0.706172
0.915206 0.878325 0.665537
1 0.873732 0.646601
0 1 0.599588
0 1 0.594675
0.110567 1 0.592874
0.298238 1 0.599069
0.505776 0.978225 0.627253
0.708782 0.949477 0.69189
0.832944 0.945953 0.731975
0.927123 0.956466 0.71368
1 0.960082 0.675715
0 0.0310521 0.63151
0 0.0278325 0.662715
0.131746 0.0177615 0.719265
0.315297 0 0.803174
0.530632 0 0.871153
0.730175 0 0.894591
0.904952 0 0.89456
1 0 0.888685
1 0 0.884443
0 0.153872 0.636805
0.00814832 0.152956 0.651789
0.139635 0.149416 0.685039
0.293812 0.135912 0.750271
0.497444 0.105837 0.833967
0.705287 0.0791638 0.871504
0.883284 0.0649271 0.873854
1 0.0568093 0.867979
1 0.0513313 0.863722
0 0.277363 0.663142
0.0310826 0.276677 0.658183
0.159808 0.276005 0.671168
0.292622 0.271778 0.70724
0.462959 0.252338 0.783627
0.676158 0.221759 0.844068
0.859464 0.205478 0.851026
1 0.197299 0.845258
1 0.191821 0.841047
0 0.403479 0.713878
0.0428168 0.400885 0.692607
0.18143 0.399802 0.680568
0.310796 0.399298 0.690044
0.446815 0.393606 0.731197
0.642466 0.3664 0.81001
0.834669 0.346426 0.827283
0.988022 0.33817 0.821637
1 0.332708 0.817411
0 0.533379 0.757534
0.0363165 0.528817 0.743832
0.185245 0.525338 0.725216
0.329778 0.523247 0.705684
0.461341 0.522744 0.708629
0.607538 0.512978 0.76022
0.80914 0.487648 0.80293
0.962905 0.479255 0.797482
1 0.474281 0.793118
0 0.670924 0.782422
0.0146029 0.663478 0.773373
0.171374 0.656764 0.763653
0.323949 0.651392 0.752941
0.473167 0.647578 0.736645
0.611536 0.646326 0.727077
0.782269 0.629374 0.777584
0.937087 0.620737 0.772839
1 0.622675 0.765423
0 0.815808 0.78941
0 0.807843 0.78294
0.126375 0.8 0.776577
0.285512 0.792233 0.770245
0.444633 0.784482 0.763882
0.603754 0.776761 0.757305
0.761166 0.768032 0.75256
0.900664 0.767102 0.749493
0.999008 0.767895 0.745174
0 0.95285 0.771298
0 0.944625 0.764569
0.0907301 0.936431 0.7579
0.251759 0.928145 0.751202
0.414115 0.919463 0.744564
0.582162 0.908919 0.739452
0.782574 0.883558 0.76759
0.896651 0.884276 0.779522
0.998642 0.881346 0.762646
0 1 0.755459
0 1 0.748577
0.0747997 1 0.741848
0.239963 1 0.735622
0.4103 1 0.731243
0.595087 0.991958 0.73579
0.806485 0.961303 0.787091
0.919738 0.959579 0.819425
0.994751 0.966354 0.788434
0 0.0375219 0.732891
0 0.0345922 0.762844
0.109514 0.0265354 0.813474
0.277699 0.00764477 0.890593
0.484215 0 0.974487
0.69778 0 1
0.890257 0 1
1 0 1
1 0 1
0 0.160464 0.736782
0 0.159472 0.753094
0.121736 0.156359 0.784497
0.267384 0.146227 0.841337
0.451789 0.121782 0.925887
0.66746 0.0897383 0.993698
0.866514 0.067155 1
1 0.0548104 1
1 0.0490883 1
0 0.283803 0.757412
0.014313 0.283284 0.757473
0.142718 0.282521 0.772442
0.274006 0.279042 0.8056
0.428168 0.265522 0.870924
0.63212 0.23537 0.954543
0.839612 0.20885 0.991531
1 0.195331 0.993896
1 0.189548 0.98996
0 0.408804 0.801526
0.0305486 0.407004 0.783658
0.165103 0.406424 0.778531
0.293675 0.405814 0.791302
0.426337 0.401663 0.827222
0.59678 0.382177 0.90367
0.809857 0.351705 0.9635
0.983261 0.336248 0.97023
1 0.330388 0.966369
0 0.536812 0.853666
0.0297856 0.533288 0.834226
0.176165 0.530816 0.813123
0.31487 0.529747 0.800732
0.444205 0.529274 0.809842
0.580056 0.523674 0.850767
0.775845 0.496437 0.929274
0.957916 0.477394 0.945983
1 0.471458 0.94226
0 0.668772 0.888136
0.0186923 0.663432 0.877165
0.169146 0.658961 0.863859
0.318044 0.655451 0.845533
0.462684 0.653346 0.825879
0.5944 0.652873 0.828168
0.740475 0.643168 0.879499
0.931884 0.618814 0.921202
1 0.612665 0.917769
0 0.809171 0.909773
0 0.801404 0.901442
0.146365 0.794003 0.892653
0.303227 0.787243 0.883101
0.456123 0.78175 0.872602
0.605447 0.777859 0.856901
0.744305 0.776532 0.846448
0.904173 0.760861 0.895125
1 0.753994 0.892989
0 0.946395 0.914183
0 0.93843 0.907713
0.100877 0.930587 0.901366
0.260029 0.92282 0.895064
0.419089 0.915084 0.888762
0.578134 0.907362 0.882383
0.737209 0.899641 0.875669
0.884901 0.891203 0.872312
0.981247 0.890517 0.872328
0 1 0.902739
0 1 0.896239
0.073228 1 0.889815
0.233021 1 0.88336
0.392966 1 0.87686
0.553399 1 0.870283
0.715877 0.993698 0.863767
0.89279 0.973922 0.878111
0.978241 0.971481 0.897108
0 0.0420386 0.803677
0 0.0392462 0.83299
0.095201 0.0321508 0.880491
0.255726 0.0160983 0.952117
0.452079 0 1
0.668467 0 1
0.872038 0 1
1 0 1
1 0 1
0 0.165057 0.806836
0 0.164004 0.823835
0.109422 0.161105 0.854322
0.251423 0.152514 0.906737
0.424277 0.13196 0.986679
0.63534 0.0999466 1
0.845533 0.072221 1
1 0.0554513 1
1 0.047776 1
0 0.288365 0.824491
0.00248722 0.287907 0.827207
0.13077 0.287068 0.843168
0.261433 0.283909 0.874952
0.409094 0.272953 0.934112
0.599496 0.246601 1
0.814786 0.215518 1
0.997528 0.196414 1
1 0.188251 1
0 0.412848 0.863462
0.0206149 0.411475 0.849165
0.153399 0.411048 0.847715
0.281727 0.410376 0.861997
0.413214 0.406775 0.89575
0.571176 0.391806 0.964355
0.78027 0.360555 1
0.970916 0.338018 1
1 0.329152 1
0 0.539925 0.916747
0.0240635 0.53695 0.895491
0.168002 0.535012 0.876173
0.303548 0.534371 0.868849
0.432242 0.533837 0.880522
0.565438 0.529412 0.917479
0.743099 0.507515 0.996674
0.942412 0.480354 1
1 0.470283 1
0 0.670146 0.959335
0.0155032 0.665614 0.945495
0.164813 0.661921 0.927794
0.312078 0.659175 0.906813
0.452567 0.657847 0.891646
0.582422 0.657435 0.898817
0.719982 0.651087 0.941909
0.91043 0.62414 1
1 0.611627 1
0 0.805982 0.985916
0 0.799146 0.976074
0.151766 0.793149 0.965743
0.302922 0.788266 0.954452
0.452415 0.784298 0.938888
0.598871 0.78172 0.918502
0.732326 0.781109 0.916976
0.873777 0.770733 0.967407
1 0.753292 0.99588
0 0.941711 1
0 0.93373 0.99324
0.115358 0.925902 0.985733
0.274693 0.918242 0.977813
0.433188 0.910903 0.969223
0.589227 0.904402 0.959579
0.73991 0.899763 0.947173
0.873747 0.898039 0.934279
0.980667 0.888411 0.968933
0 1 1
0 1 0.994766
0.0829938 1 0.988434
0.242161 1 0.982116
0.40119 1 0.975845
0.560204 0.99852 0.969512
0.719203 0.990814 0.963058
0.86949 0.983581 0.956344
0.971145 0.977188 0.955856
